X:100
T:King of Sweden's March
T:John Malchair's Third Collection of Tunes
%%VWML:Malchair-3619-p100
F:https://www.vwml.org/record/Malchair/3619/p100
F:www.vwml.org/topics/historic-dance-and-tune-books/Malchair
Z:Peter Kanssen March 2020
M:C|
L:1/8
K:D
Tf3e (def).d | g2g2 (gba).a | f3e (def).d | Te4 A4 | 
Tf3e (def).d | g2(ag) f2(gf) | e2d2 (egf).e | d2d2 d4 ||
(de)(fg) a2(ba) | .g2.g2 .g2(ag) | .f2.f2 (gf)(ed) | Te4 A4 | 
(de)(fg) .a2(ba) | .g2(ag) .f(agf) | e2d2 .e(gfe) | d2d2 d4 ||
W:
T:Dutch Skipper
T:John Malchair's Third Collection of Tunes
F:https://www.vwml.org/record/Malchair/3619/p100
F:www.vwml.org/topics/historic-dance-and-tune-books/Malchair
M:C|
L:1/8
K:D
(3ABc | d4 c3d | TB4 A2Bc | d2c2 d2e2 | 
f3e defg | a4 d3e | fede Te3d | d6 ||
de | f2f2 gfed | c6 cd | e2 a^g fedc | B4 c3d | 
e4 A3B | cBAB B3A | A6 ||
de | f2f2 gfed | g6 fg | a2 gf g2a2 | b4f3g | 
a4 d3e | fede Te3d | d4 [N:as MS - should probably be d6] ||
W:
T:Sam Jones 
T:a Virginian tune
T:John Malchair's Third Collection of Tunes
F:https://www.vwml.org/record/Malchair/3619/p100
F:www.vwml.org/topics/historic-dance-and-tune-books/Malchair
M:C
L:1/8
K:G
|:G2 GA B>AG>A | B(c/B/) c>A B>cB>A | G2 G>A B>AG>A | Bc/B/ c>A G>AG>D :|
|:d2 dc B>BGA | Bc/B/ cA BcBc | d(e/f/) g>d B>AG>A | B>BcA G>AG>D :|
